X: 26296
T: Memories Of Dougald MacIntyre
R: reel
M: 4/4
K: Amajor
B|AFEF ABcA|dcBA BFFB|AFEF ABce|faec A/A/A A:|
B|:A,2 af ecAc|{A}B2 Bg fefg|aefb ecBc|AFEF A2 AB:|

